X:949
T:McAuliffe's
S:Martin Mulvihill, 1978 Trad Fiddling from Limerick
Z:Nigel Gatherer
M:12/8
L:1/8
K:D
A | d2d ded c2E EFG | ABA A2G F2D DFA | d2d ded c2E EFG | ABA GFE d3 d2 :|
e | f2d d2c d2f agf | e2A A@c e2f gfe | f2d d2c d2f agf | e2A

